X:116 
T:Jackson's Over the Water  
B:WSGM.175
F:file ID wsgm/116jow
S:"Aird's Selections" 1782-97
Z:Kinder/Black
M:6/8
L:1/8
R:jig
K:G
"A dorian" % source key G dorian
B/A/|GEE GEE|A>BA AGA|B>cB BAG|A>BA AGA|
B2c BAG|dBd efg|dBB BAG|A3 A2:|
a|gee aff|gee dBB|gee aff|gee e2a|
gee b2a|gee efg|dBB BAG|A3 A2:|

